X: 3036
T: Paspe
%R: _
B: Henry Playford "Apollo's Banquet", London 1687 (5th Edition)
F: https://archive.org/details/apollosbanquetco01rugg
Z: 2017 John Chambers <jc:trillian.mit.edu>
M: 3/2
L: 1/8
K: Dm
% - - - - - - - - - -
f2e2 d2^c2 |\
d3e f2e2 f2g2 | f2e2 f4 (g3f/g/) |\
a2ba gaf2 f3e | f4 :: a2f2 efg2 |\
f3e d2f2 e2d2 |
e2A2 d4 (=B3A/=B/) |\
c3d e2B2 B4 | A4 A2d2 ^c2d2 |\
e3f g2a2 efg2 | f2e2 f4 (^f3e/f/) |\
g3a (ba)(gf) e4 | d4 |]
% - - - - - - - - - -

%%sep 1 1 500
%%sep 1 1 500

